!!!COM: Mozart, Wolfgang Amadeus
!!!OTL: Musikalische Würfelspiele, Kontre-Tänze
!!!SCA: K<sup>6</sup> Anh. C30.01 (K<sup>3</sup> Anh. 294d)
**kern	**kern
*staff2	*staff2
*clefF4	*clefG2
*M2/4	*M2/4
*MM110	*MM110
*>[A,A1,A,A2,B]	*>[A,A1,A,A2,B]
*>norep[A,A2,B]	*>norep[A,A2,B]
*>A	*>A
=165	=165
4C	8cc
.	16ee
.	16cc
4r	8g
.	8g
=114	=114
4C	8gg
.	16aa
.	16gg
4r	16ff
.	16ee
.	16dd
.	16cc
=112	=112
4G	8ff
.	8dd
4GG	8b
.	8g
=15	=15
4C	16cc
.	16ee
.	16gg
.	16ee
4C	8cc
.	8cc
=21	=21
4D	8d
.	16f#
.	16a
4C 4D	16dd
.	16ff#
.	16aa
.	16ff#
=156	=156
4G	8gg
.	4bb
4r	.
.	16gg
.	16dd
=73	=73
4C	8ee
.	8gg
4D	8ff#
.	8aa
=11	=11
*>A1	*>A1
4GG	4g 4b 4gg
16G	4r
16F	.
16E	.
16D	.
=11:|!	=11:|!
*>A2	*>A2
4GG	4g 4b 4gg
16GG	4r
16AA	.
16BB	.
16C#	.
=148||	=148||
*>B	*>B
4D	16aa
.	16gg
.	16aa
.	16ff#
4F#	8dd
.	16ee
.	16ff#
=34	=34
8G	16gg
.	16bb
8r	16gg
.	16dd
8GG	16b
.	16gg
8r	16dd
.	16b
=87	=87
4C	8ee
.	16cc
.	16ee
4r	8gg
.	16ee
.	16cc
=107	=107
16BB	8dd
16D	.
16G	4b
16D	.
16G	.
16F	.
16E	8g
16D	.
=128	=128
16C	8g
16G	.
16E	4cc
16G	.
16C	.
16G	.
16E	8ee
16G	.
=24	=24
4C	16ccc
.	16bb
.	16aa
.	16gg
4r	16ff
.	16ee
.	16dd
.	16cc
=129	=129
4G	8ff
.	8dd
4GG	8b
.	8g
=146	=146
4C	4cc
4CC	4c
==	==
*-	*-
